X:1
T:Braes of Rhynie, The
T:Braes of Rhynie, The
T:Alexander Walker
C:Alexander Walker
L:1/8
M:4/4
K:D
V:1 treble 
V:1
 A, | D<DF>D E>A,C>A, | D<D D>F A>d F>D | G>BF>A E<A,DC>A, | A>df>e (d2 d>)E | (D2 D)F E<B,B>E | %6
 D<D D>F A>dF>D | G>BF>A B<ee>A | (3BdB AC (D2 D) || f | d>af>a e<Ac>A | d>a b/a/g/f/ a<ff>a | %12
 (3gbg (3faf e>Ac>A | F<AB>c d2 d>f | d>af>a e<Ac>A | d>a b/a/g/f/ a>fA>F | (3GBG (3FAF B<EE>F | %17
 D<A,B,>C (D2 D) || %18

